svg/color/term.svg

<svg version="1.2" xmlns="http://www.w3.org/2000/svg" viewBox="0 0 36 36" width="36" height="36">
	<title>termimage-svg</title>
	<style>
		.term-s0 { fill: #0a5ed9 } 
	</style>
	<path id="Layer" fill-rule="evenodd" class="term-s0" d="m18.2 0h14.5l0.7 0.4c0.9 0.4 1.8 1.3 2.2 2.2l0.4 0.7v29l-0.4 0.7c-0.4 0.9-1.3 1.7-2.2 2.1l-0.7 0.4h-29.4l-0.7-0.4c-0.9-0.4-1.8-1.2-2.2-2.1l-0.3-0.7-0.1-14.2c0-12.8 0-14.3 0.2-14.9 0.5-1.5 1.5-2.5 2.9-3 0.6-0.2 2.2-0.2 15.1-0.2zm3.7 4.8h-16.7v4.2h16.7zm8.9 0h-7.3v4.2h7.3zm-8.9 7.3h-7.8v4.2h7.8zm0 7.2h-7.8v4.2h7.8zm0 7.2h-7.8v4.3h7.8z"/>
</svg>

<svg xmlns="http://www.w3.org/2000/svg" width="36" height="36" version="1.2" viewBox="0 0 36 36"><path fill-rule="evenodd" d="M18.2 0h14.5l.7.4c.9.4 1.8 1.3 2.2 2.2l.4.7v29l-.4.7c-.4.9-1.3 1.7-2.2 2.1l-.7.4H3.3l-.7-.4C1.7 34.7.8 33.9.4 33l-.3-.7L0 18.1C0 5.3 0 3.8.2 3.2.7 1.7 1.7.7 3.1.2 3.7 0 5.3 0 18.2 0m3.7 4.8H5.2V9h16.7zm8.9 0h-7.3V9h7.3zm-8.9 7.3h-7.8v4.2h7.8zm0 7.2h-7.8v4.2h7.8zm0 7.2h-7.8v4.3h7.8z" style="fill:#0a5ed9"/></svg>
